icon/fa/person-arrow-down-to-line.svg

<svg xmlns="http://www.w3.org/2000/svg" viewBox="0 0 640 512"><!--! Font Awesome Free 6.1.2 by @fontawesome - https://fontawesome.com License - https://fontawesome.com/license/free (Icons: CC BY 4.0, Fonts: SIL OFL 1.1, Code: MIT License) Copyright 2022 Fonticons, Inc.--><path d="M144 48c0-26.51 21.5-48 48-48s48 21.49 48 48-21.5 48-48 48-48-21.49-48-48zm-24 208.9-28.57 47.6c-9.1 15.1-28.76 20-43.91 10.9-15.15-9.1-20.05-28.7-10.95-43.9l58.28-96.9C112.2 145.7 143.4 128 177.1 128h29.8c33.7 0 64.9 17.7 82.3 46.6l58.2 96.9c9.1 15.2 4.2 34.8-10.9 43.9-15.2 9.1-34.8 4.2-43.9-10.9L264 256.9V448h344c17.7 0 32 14.3 32 32s-14.3 32-32 32H32c-17.67 0-32-14.3-32-32s14.33-32 32-32h88V256.9zM200 448v-96h-16v96h16zm193.4-121.4c-12.5-12.5-12.5-32.7 0-45.2s32.7-12.5 45.2 0l25.4 25.3V64c0-17.67 14.3-32 32-32s32 14.33 32 32v242.7l25.4-25.3c12.5-12.5 32.7-12.5 45.2 0s12.5 32.7 0 45.2l-80 80c-12.5 12.5-32.7 12.5-45.2 0l-80-80z"/></svg>

<svg xmlns="http://www.w3.org/2000/svg" viewBox="0 0 640 512" height="1em" width="1em">
<!--! Font Awesome Free 6.1.2 by @fontawesome - https://fontawesome.com License - https://fontawesome.com/license/free (Icons: CC BY 4.0, Fonts: SIL OFL 1.1, Code: MIT License) Copyright 2022 Fonticons, Inc.-->
  <path d="M144 48C144 21.49 165.5 0 192 0C218.5 0 240 21.49 240 48C240 74.51 218.5 96 192 96C165.5 96 144 74.51 144 48zM120 256.9L91.43 304.5C82.33 319.6 62.67 324.5 47.52 315.4C32.37 306.3 27.47 286.7 36.57 271.5L94.85 174.6C112.2 145.7 143.4 128 177.1 128H206.9C240.6 128 271.8 145.7 289.2 174.6L347.4 271.5C356.5 286.7 351.6 306.3 336.5 315.4C321.3 324.5 301.7 319.6 292.6 304.5L264 256.9V448H608C625.7 448 640 462.3 640 480C640 497.7 625.7 512 608 512H32C14.33 512 0 497.7 0 480C0 462.3 14.33 448 32 448H120L120 256.9zM200 448V352H184V448H200zM393.4 326.6C380.9 314.1 380.9 293.9 393.4 281.4C405.9 268.9 426.1 268.9 438.6 281.4L464 306.7V64C464 46.33 478.3 32 496 32C513.7 32 528 46.33 528 64V306.7L553.4 281.4C565.9 268.9 586.1 268.9 598.6 281.4C611.1 293.9 611.1 314.1 598.6 326.6L518.6 406.6C506.1 419.1 485.9 419.1 473.4 406.6L393.4 326.6z"/>
</svg>
